X:1
T:Sportin' Life Blues
M:4/4
L:1/8
K:E
 GA ^A| B G3 E2 ^D2| =D3- D2 Bc B| A3- A2 EF E| =G3- G2|G-=A ^A| B B,3- B,G-=A ^A|\
 B/2=G/2 E3 =G2 F2| E3||
